X:1
T:Keokuk, 86.86.86
T:Keokuk, 86.86.86
T:William Batchelder Bradbury (1816-1868)
T:Public Domain Courtesy of the Cyber Hymnal™
C:William Batchelder Bradbury (1816-1868)
Z:Public Domain
Z:Courtesy of the Cyber Hymnal™
%%score 1 2
L:1/8
Q:1/4=112
M:2/4
K:C
V:1 treble 
V:2 bass 
V:1
 [EG]2 | [EG]2 [EG]2 [DG]2 [DG]2 | [CG]4 [Gc]4 | [GB]4 [FB]4 | [Ec]2 [FA]2 [EG]2 [DF]2 | %5
 [CE]4 z2 [CE]2 | [CE]2 [CE]2 [CE]2 [EG]2 | [EG]2 [DF]2 [DF]2 [B,D]2 | [B,D]2 [B,D]2 [B,G]2 [DF]2 | %9
 [CE]4 z2 [EG]2 | [EG]2 [EG]2 [Gc]2 [Gc]2 | [Ge]4 [Gd]4 | [Ac]4 [FA]4 | [EG]2 [EG]2 [DG]2 [FB]2 | %14
 [Ec]6 |] %15
V:2
 [C,C]2 | [C,C]2 [E,C]2 [G,B,]2 [F,B,]2 | [E,C]4 [C,E]4 | [G,D]4 [G,D]4 | %4
 [A,C]2 [F,C]2 [G,C]2 [G,,G,B,]2 | [C,C]4 z2 C,2 | C,2 C,2 C,2 C,2 | G,,2 G,,2 G,,2 G,,2 | %8
 G,,2 G,,2 G,,2 G,,2 | C,4 z2 [C,C]2 | [C,C]2 [C,C]2 [C,E]2 [C,E]2 | [C,C]4 [E,C]4 | %12
 [F,C]4 [F,C]4 | [G,C]2 [G,C]2 [G,B,]2 [G,D]2 | [C,C]6 |] %15

